X:1
T:Tollite portas principes
T:Franz Xaver Witt
T:Tollite portas principes
T:CPDL   —   Creative Commons Attribution Non Commercial 3.0
T:CPDL   —   Creative Commons Attribution Non Commercial 3.0
C:Franz Xaver Witt
Z:CPDL   —   Creative Commons Attribution Non Commercial 3.0
%%score [ ( 1 2 ) 3 4 ]
L:1/8
Q:1/4=94
M:4/4
K:G
V:1 treble nm="Sopran\nAlt"
V:2 treble 
V:3 treble-8 nm="Tenor"
V:4 bass nm="Bass"
V:1
!f! B3 B B4 | d3 d d4 | e2 d2 c3 c | B4!>(! A4!>)! | !breath!B4!f! !^!c3 c | c4 !^!e3 e | e4 z4 | %7
w: |||||||
 z8 |!>(! z8!>)! | z2 c2 c2 c2 | B3 B B4 | c2 B2 A2 G2 | =F4 E4 | z2!p! E2!<(! E2 A2!<)! | %14
w: |||||||
 A3!>(! A ^G4!>)! | A2!<(! B2 c2 d2!<)! |!>(! d4 B4!>)! | z2!f! d2 d2 d2 | e4 c2 =f2 | %19
w: |||||
 e3 e !breath!c2 c2 | c2 c2 B4 | B2 A2 B3 B | G6 G2 | G2 G2 G4- | G2 FE F3 F | !fermata!G8 |] %26
w: |||* et|in- tro- i-|* bit rex glo- ri-|ae.|
V:2
 G3 G G4 | G3 G G4 | G2 G2 G2 F2 | G2 (G4 F2) | G4 E3 E | E4 G3 G | G4 A2 G2 | =F3 F E4 | D4 E4 | %9
w: Tol- li- te,|tol- li- te|por- tas prin- ci-|pes ves- *|tras, tol- li-|te, tol- li-|te por- tas|prin- ci- pes|ves- tras,|
 x2 G2 G2 G2 | G3 G G4 | G2 G2 =F2 E2 | (D3 C) B,4 | x2 E2 E2 E2 | E3 E E4 | E2 G2 G2 B2 | A4 G4 | %17
w: et e- le-|va- mi- ni|por- tae ae- ter-|na- * les,|et e- le-|va- mi- ni|por- tae ae- ter-|na- les,|
 x2 G2 G2 G2 | G4 E2 A2 | A2 ^G2 A2 A2 | A2 G2 ^F4 | G2 E2 F3 F | E2 E2 E2 E2 | D4 E2 C2 | D6 D2 | %25
w: et in- tro-|i- bit rex|glo- ri- ae, et|in- tro- i-|bit rex glo- ri-|ae, et in- tro-|i- bit rex|glo- ri-|
 D8 |] %26
w: ae.|
V:3
!f! d3 d d4 | d3 d d4 | z8 | z8 | z4!f! !^!G3 G | G4 !^!e3 e | e4 c2 c2 | c2 B2 c2 (c2- | %8
w: ||||tol- li-|te, tol- li-|te por- tas|prin- ci- pes ves-|
!>(! c2 B2) c4!>)! | z2 e2 e2 e2 | d3 d d4 | e3 d c3 B | (A2 BA) ^G4 | z2!p! c2!<(! c2 c2!<)! | %14
w: * * tras,|et e- le-|va- mi- ni|por- tae ae- ter-|na- * * les,|et e- le-|
 B3!>(! B B4!>)! | c2!<(! d2 e2 g2!<)! |!>(! (g2 ^f2) g4!>)! | z2!f! B2 B2 B2 | B4 c2 d2 | %19
w: va- mi- ni|por- tae ae- ter-|na- * les,|et in- tro-|i- bit rex|
 B3 B !breath!A2 e2 | e2 e2 (e2 ^d2) | e2 e4 ^dd | e6 B2 | B2 B2 (cBAG | A2) AG A2 Bc | %25
w: glo- ri- ae, et|in- tro- i- *|bit rex glo- ri-|ae, et|in- tro- i- * * *|* bit rex glo- ri- *|
 !fermata!B8 |] %26
w: ae.|
V:4
!f! G,3 G, G,4 | B,3 B, B,4 | C2 B,2 A,3 A, | G,4!>(! D,4!>)! | !breath!G,4!f! !^!C,3 C, | %5
w: Tol- li- te,|tol- li- te|por- tas prin- ci-|pes ves-|tras, * *|
 C,4 !^!C3 C | C4 =F,2 E,2 | D,3 D, C,4 |!>(! G,4 C,4!>)! | z2 C2 C2 C2 | G,3 G, G,4 | %11
w: ||||||
 C,2 E,2 =F,2 C,2 | D,4 E,4 | z2!p! A,2!<(! A,2 A,2!<)! | E,3!>(! E, E,4!>)! | %15
w: ||||
 A,2!<(! G,2 C2 G,2!<)! |!>(! D4 G,4!>)! | z2!f! G,2 G,2 G,2 | E,4 A,2 D,2 | %19
w: ||||
 E,3 E, !breath!A,2 A,2 | %20
w: |
"^deutscher Text:\nNehmet hinweg, ihr Fürsten, eure Throne und ihr ewigen Tore, erhebet euch, und einziehen wird der König der Glorie." A,2 A,2 B,4 | %21
w: |
 E,2 C2 B,3 B, | E,2 E,2 E,2 E,2 | G,4 C,2 E,2 | D,6 D,2 | !fermata!G,8 |] %26
w: * rex glo- ri-|ae, et in- tro-|i- bit rex|glo- ri-|ae.|

